X:1
T:James Gibb editions
T:Today Thy mercy calls us - Barnby
%%score [ ( 1 2 ) ( 3 4 ) ]
L:1/8
Q:1/4=72
M:4/4
K:Eb
V:1 treble nm="Midi_74"
V:2 treble 
V:3 bass nm="Midi_74"
V:4 bass 
V:1
"^Today Thy mercy calls us""^Joseph Barnby\n(1838-96)""^76. 76. D""^Oswald Allen\n(1816-78)"!mp! E2 | %1
 G2 F2 E2 B2 | B4 A2 || G2 | F2 GA G2 F2 | G6 || G2 | =A2 F2!<(! B2 d2!<)! |!>(! d4 c2!>)! || G2 | %10
 B2 =AG!>(! A2 c2!>)! | B6 ||[M:4/4] B2 | _d2 B2 G2 F2 | F4 =E2 || =E2 | F2 F2 G2 AB | A6 || %18
"^Slower"[Q:1/4=66] A2 | B2 c2 B2 e2 | e4 d2 || e2 | B2 AG F2 F2 | E6 || A4 G4 |] %25
V:2
 B,2 | E2 D2 E2 E2 | E4 E2 || E2 | E2 E2 E2 D2 | E6 || G2 | F2 F2 F2 ^F2 | G4 G2 || G2 | %10
 F2 F2 F2 E2 | D6 ||[M:4/4] B2 | _d2 B2 G2 F2 | F4 =E2 || C2 | C2 F2 F2 =E2 | F6 || C2 | %19
 !courtesy!=D2 E2 F2 F2 | F4 F2 || E2 | E2 E2 E2 !courtesy!=D2 | E6 || E4 E4 |] %25
V:3
 G,2 | B,2 A,2 G,2 G,2 | G,4 A,2 || B,2 | C2 C2 B,2 B,2 | B,6 || B,2 | C2 =A,2 B,2 B,2 | B,4 C2 || %9
 C2 | D2 CB, C2 =A,2 | B,6 ||[M:4/4] B,2 | %13
"^1 Today Thy mercy calls us\nTo wash away our sin.\nHowever great my trespass,\nWhatever we have been,\nHowever long from mercy\nOur hearts have turned away,\nThy precious blood can wash us\nAnd make us clean today.\n\n2 Today Thy gate is open,\nAnd all who enter in\nShall find a Father's welcome\nAnd pardon for their sin.\nThe past shall be forgotten,\nA present joy be giv'n,\nA future grace be promised,\nA glorious crown in heav'n." _D2 B,2 G,2 F,2 | %14
 F,4 =E,2 || G,2 | F,2 A,2 _D2 C2 | C6 || %18
"^3 Today our Father calls us;\nThe Holy Spirit waits;\nHis blessèd angels gather\nAround the heav'nly gates.\nNo question will be asked us\nHow often we have come;\nAlthough I oft have wandered,\nIt is our Father's home.\n\n4 O all-embracing mercy,\nO ever-open door,\nWhat shall I do without Thee\nWhen heart and eye run o'er?\nWhen all things seem against us,\nTo drive us to despair,\nWe know one gate is open,\nOne ear will hear our prayer." A,2 | %19
"^i" A,2 A,2 A,2 A,2 | A,4 A,2 || G,2 | _D2 CB, A,G, A,2 | G,6 || C4 B,4 |] %25
V:4
 E,2 | E,2 B,,2 C,2 _D,2 | _D,4 C,2 || B,,2 | A,,2 F,,2 B,,2 B,,2 | E,6 || E,2 | E,2 E,2 D,2 D,2 | %8
 E,4 E,2 || =E,2 | F,2 F,2 F,2 F,2 | B,6 ||[M:4/4] B,2 | _D2 B,2 G,2 F,2 | F,4 =E,2 || C,2 | %16
 A,,2 _D,2 B,,2 C,2 | F,6 || F,2 | F,2 E,2 D,2 C,2 | B,,4 B,,2 || C,2 | G,,2 A,,2 B,,2 B,,2 | %23
 E,6 || A,,4 E,4 |] %25

